X:1
T:11 Ecossaise
T:11 Ecossaise
T:D.781
T:Franz Schubert
T:Public Domain (PianoXML typeset)
T:Public Domain (PianoXML typeset)
T:Public Domain (PianoXML typeset)
T:Public Domain (PianoXML typeset)
C:Franz Schubert
Z:Public Domain (PianoXML typeset)
%%score { ( 1 4 5 ) | ( 2 3 ) }
L:1/8
M:2/4
K:Gb
V:1 treble nm="Piano" snm="Pno."
V:4 treble 
V:5 treble 
V:2 bass 
V:3 bass 
V:1
!p!"^No. 1" !>![DB]3 [=C=A] | [DB]2 [B,D]2 | D2 [Ac]2 | [B,D]4 | !>![DB]3 [=C=A] | [DB]2 [B,D]2 | %6
 D2 [Ac]2 | [B,D]4 ::!f! (!>![EG]3 [=DF] | !>![EG]3 [=DF] | [EG]) z !wedge![CFA]2 | [B,=DF]4 | %12
 [F_c-]4 | c2 B2 | A2 AB | G4 :|[K:D][M:2/4]!p!"^No. 2" (Adcd | A2 [da]2 | %18
 !wedge!B2)!f! !wedge![Bdb]2 | [Ada]4 |!p! [ee']4 | [ff']4 |!>(! [aa']2!>)! g'e' | !wedge!d'2 z2 :: %24
 (d'2 af) | (d'2 ag) | (e'2"_cresc." d'^g) | (e'2 c'a) |!ff! a'2 e'c' | b'2 f'd' | a'2 g'e' | %31
 d'2 z2 :|[K:Gb][M:2/4]!p!"^No. 3" (Bded | [Gg]3) [Bb] | ([Bb]2 [Aa]2) | [Gg]2 z2 | (dgag | %37
 [Bb]3) [Ee] | ([gg']2 [ff']2) | [ee']2 z2 ::!f! Fcdc | [ce]4 | Fcdc | [Fce]3 [GBe] | e2 d z | %45
 !wedge![DGB]2 !wedge![B,DG]2 |1 e2 d z | [DGB]2 [B,DG]2 :|2 FA BA | G2 z2 || %50
[K:Eb][M:2/4]!p!"^No. 4" (BGBe | !>!B2 e2 | !>!c2 a2 | !>!e2 b) z | (bfbd' | !>!f'2 e') z | %56
 (bfbd') | .e'2 z2 ::!f! (ECEG) | ([CEAc]2 [B,EGB]) z | ([CEAc]2 [B,EGB]) z | ([CEAc]2 [B,EGB]) z | %62
!p! (dBdf) | [Bgb] z [Bgb] z | [Bgb] z [Bgb] z | [Beb]4 :|[K:Ab]!p!"^No. 5" (CEAB) | %67
 .[Cc]2 .[Cc]2 | .[Ee]2 .[Ee]2 | [Cc]4 | (ceab) | .[cc']2 .[cc']2 | .[=e=e']2 .[ee']2 | [ff']4 :: %74
!ff! (FAde | !wedge!f) z [FAdf]2 | (f2 e2) | e4 | (DFBc | !wedge!d) z [DEd]2 | ([DEd]2 [CEA]2) | %81
 [CEA]4 :|[K:Gb][M:2/4]!p!"^No. 6" [GBg] z [GBf] z | [GBe] z [GBf] z | [FABe] z !wedge![FAB=d] z | %85
 [FABc] z [FAB] z | [EGB] z [GBe] z | [GBf] z [GBg] z |!ff! [B=dfb]2 [Bdfb][Bdfb] | [B=dfb]2 z2 :: %90
!f! [cac'] z [cgb] z | [cfa] z [ceg] z | [cdf] z [ceg] z | [cdfa]4 |!ff! [Bdgb]2 [Bdgb][Bdgb] | %95
 !wedge![=cg=c']2 !wedge![dgd']2 | _c'2 ba | g2 z2 :|[K:D][M:2/4]"^No. 7"!ff! b((B [Bb]2)) | %99
 ^e'((^e [ee']2)) | [ff']2 [dd']2 | [Bb]4 |!p! b4 | b4 | b2 ^a2 | b2 z2 :: %106
!ff! ([^ac'e']f [ac'e']2) |!mf! .[F^Ace]2 .[FAce]2 | ([fb^d']^d [fbd']2) |!mf! [FB^d]2 [FBd]2 | %110
 .[cc'].[Bb].[^A^a].[^G^g] |1 [Ff]2 [Ff]2 | (([Ff]2 [Bb]2)) | [Ff]4 :|2 %114
 !wedge![Ff]2!ff! !wedge![ff']2 | !wedge![^d^d']2 !wedge![ff']2 | !wedge![bb']2 || %117
[M:2/4]!p!"^No. 8" (cd | e) z (cd | e) z (fg | !>!a4 | d') z (f'e' | d') z (f'e' | d') z (Pc'b) | %124
 (!>!a4 | f) z ::!f! cd | ([Geg]2"_cresc." ef) | ([Geg]2 ef) | ([Geg]2 ef) | [Geg]2 (fg) | %131
!ff! [Afa]4 | [Adf]4 | !wedge![Gce]2 Bc | d2 z2 :|[K:B][M:2/4]!p!"^No. 9" f4 | f3 f | f4 | f4 | %139
 d4 | [Ad]3 [Ad] | d4 | [^^Fd]4 :: (F2 GF | [Fd]3) [Fd] |{d} (^f2 e2 | d4) | (F2 GF) | [df]3 [df] | %149
 (!>![df]2 [ca]2 | [Bb]2) z2 :|"^No. 10"!mf! ([bd']<g') .[gb]2 | ([gb]<d') .[dg]2 | %153
 ([e^^f]<a) .[ef]2 | !>![gb]4 | ([bd']<g') .[gb]2 | ([gb]<d') .[dg]2 | ([e^^f]<a) .[ce]2 | %158
 !>![Bd]4 ::!f! (f<b) f2 | (f<b)"_cresc." f2 | (f<b) f2 | [fbf']4 | (b<f') e'2 | (b<e') d'2 | %165
 (b<d') c'2 | b4 :|[K:D][M:2/4]"^No. 11"!ff! (F2 ^EF) | (B2 ^AB) | !wedge![Bd]2 !wedge![df]2 | %170
 [dfb]4 | (d'2 c'b) | ([fa]2 gf) | e2 fe | d2 z2 ::!p! g2 fe | !arpeggio![Fda]2 !arpeggio![Fda]2 | %177
 g2 fe | [Fd]2 [Fd]2 |!ff! e2 ^de | e'2 ^d'e' | a'2 g'e' | d'2 z2 :| %183
V:2
 G,,4 | G,,4 | G,,4 | G,,4 | G,,4 | G,,4 | G,,4 | G,,4 :: E,,2 E,2 | _D,,2 (D,2 | %10
 [C,,C,]) z !wedge![A,,,A,,]2 | [B,,,B,,]4 | [A,,,A,,]4 | [G,,,G,,]2 [B,,,B,,]2 | %14
 [D,,D,]2 [D,,D,]2 | [G,,D,]4 :|[K:D][M:2/4] D,2 [F,A,D]2 | D,2 [F,A,D]2 | D,2 [D,G,B,D]2 | %19
 [D,F,A,D]4 | C,2 [G,A,E]2 | D,2 [F,A,D]2 | A,,2 [G,A,C]2 | [D,F,A,D]2 z2 :: !wedge!=C,2 [F,A,D]2 | %25
 !wedge!B,,2 [G,B,D]2 | !wedge!_B,,2 [E,^G,D]2 | A,,2 [E,A,C]2 | =G,,2 [C,E,A,]2 | F,,2 [D,F,A,]2 | %30
 A,,2 [G,A,C]2 | [D,F,A,D]2 z2 :|[K:Gb][M:2/4] G,2 [B,DG]2 | G,2 [B,DG]2 | D,2 [CDF]2 | %35
 G,2 [B,DG]2 | G,2 [B,DG]2 | E,2 [B,EG]2 | B,,2 [B,=DA]2 | [EG]2 z2 :: [D,,D,]2 [D,,D,]2 | %41
 [D,A,]4 | [D,,D,]2 [D,,D,]2 | [D,A,]3 z | G,,2 [D,G,B,]2 | [D,G,B,]2 [D,G,]2 |1 G,,2 [D,G,B,]2 | %47
 [D,G,B,]2 [D,G,]2 :|2 [D,,D,]2 [D,,D,]2 | [G,,D,]2 z2 ||[K:Eb][M:2/4] E,2 [B,EG]2 | E,2 [B,EG]2 | %52
 E,2 [CEA]2 | E,2 [B,EG]2 | B,,2 [B,DA]2 | E,2 [B,EG]2 | B,,2 [B,DA]2 | .E,2 [B,EG]2 :: %58
 (E,C,E,G,) | (([A,,A,]2 [E,,E,])) z | (([A,,A,]2 [E,,E,])) z | (([A,,A,]2 [E,,E,])) z | %62
 z2[K:treble] ((!>![B,DA]2 | [EG])) z [B,DA] z | [EG] z [B,DA] z | [EG]4 :| %66
[K:Ab][K:bass] A,,2 [E,A,C]2 | A,,2 [E,A,C]2 | G,,2 [E,B,D]2 | A,,2 [E,A,C]2 | A,,2 [E,A,C]2 | %71
 F,,2 [F,A,C]2 | C,2 [G,B,C]2 | [F,A,C]4 :: (F,,A,,D,E, | !wedge!F,) z [D,,D,]2 | %76
 [F,,,F,,]2 [F,,F,]2 | [F,,F,]4 | (B,,D,F,=A, | !wedge!B,) z [E,G,]2 | ([E,G,]2 [A,,E,A,]2) | %81
 [A,,E,A,]4 :|[K:Gb][M:2/4] [E,,E,] z [E,B,] z | [E,,E,] z [E,B,] z | [E,,E,] z [E,B,] z | %85
 [E,,E,] z [E,B,] z | [E,,E,] z [E,B,] z | [E,,E,] z [E,B,] z | [B,,,B,,]2 [B,,,B,,][B,,,B,,] | %89
 [B,,,B,,]2 z2 :: [D,,D,] z [D,A,] z | [D,,D,] z [D,A,] z | [D,,D,] z [D,A,] z | [D,,D,]4 | %94
 [G,,,G,,]2 [G,,,G,,][G,,,G,,] | [=A,,,=A,,]2 [B,,,B,,]2 | [D,,D,]2 [D,,D,]2 | [G,,D,]2 z2 :| %98
[K:D][M:2/4] B,,,B,, [B,,,B,,]2 | ^E,,^E,- [E,,E,]2 | [F,,F,]2 [D,,D,]2 | [B,,,B,,]4 | [G,B,D]4 | %103
 [G,CE]4 | [F,DF]2 [F,EF]2 | [B,DF]2 z2 :: [F,,^A,,C,]F, [F,,A,,C,]2 | .[F,^A,CE]2 .[F,A,CE]2 | %108
 [B,,^D,F,]B, [B,,D,F,]2 | [B,^D]2 [B,D]2 | F,,2 [F,^A,E]2 |1 [F,^A,E]2 [F,A,E]2 | B,,2 [F,B,^D]2 | %113
 [F,B,^D]2 [F,B,D]2 :|2 [F,^A,E]2 [F,A,E]2 | [^G,B,^D]2 [F,^A,C]2 | [B,^D]2 ||[M:2/4] z2 | %118
 z2 [CE]2 | z2 [CE]2 | z2 [A,D]2 | z2 [F,A,D]2 | z2 [B,D]2 | z2 [A,D]2 | (A,,2 [E,A,C]2) | %125
 [D,A,D]2 :: z2 | [A,,,A,,]4 | [_B,,,_B,,]4 | [=B,,,=B,,]2 [=C,,=C,]2 | [^C,,^C,]4 | [D,,D,]4 | %132
 [F,,F,]4 | [A,,A,]2 [A,,A,]2 | [D,A,]2 z2 :|[K:B][M:2/4] B,,2 [F,B,]2 | F,,2 [F,A,]2 | %137
 B,,2 [F,B,]2 | F,,2 [F,A,]2 | G,,2 [D,G,B,]2 | F,,2 [D,^^F,C]2 | G,,2 [D,G,B,]2 | %142
 D,,2 [D,^^F,A,]2 :: B,,2 [F,B,]2 | B,,2 [F,B,D]2 | B,,2 [G,B,E]2 | B,,2 [F,B,D]2 | B,,2 [F,B,]2 | %148
 B,,2 [F,B,D]2 | F,,2 [F,A,E]2 | [B,D]2 z2 :| G,,2 [D,G,B,]2 | G,,2 [D,G,B,]2 | G,,2 [D,^^F,A,C]2 | %154
 G,,2 [D,G,B,]2 | G,,2 [D,G,B,]2 | G,,2 [D,G,B,]2 | G,,2 [D,^^F,A,]2 | G,,2 [D,G,B,]2 :: %159
 !wedge![B,,,B,,]2 !wedge![D,,D,]2 | !wedge![F,,F,]2 !wedge![B,,B,]2 | %161
 !wedge![D,D]2 !wedge![F,F]2 | [=A,DF=A]4 | G,2 [B,EG]2 | F,2 [B,DF]2 | F,2 [F,EF]2 | [B,DF]4 :| %167
[K:D][M:2/4] [B,,,B,,]4 | [B,,,B,,]4 | [B,,,B,,]2 [B,,,B,,]2 | [B,,,B,,]4 | [F,,,F,,]4 | %172
 [A,,,A,,]4 | [A,,A,]2 [A,,A,]2 | [D,A,]2 z2 :: [A,,,A,,]4 | [A,,,A,,]2 [A,,,A,,]2 | [A,,,A,,]4 | %178
 [D,,A,,]2 [D,,A,,]2 | [^G,,,^G,,]4 | [^G,,E,]4 | [A,,,A,,]2 [A,,A,]2 | [D,A,]2 z2 :| %183
V:3
 z2 [D,G,]2 | z2 [D,G,]2 | z2 [D,F,]2 | z2 [D,G,]2 | z2 [D,G,]2 | z2 [D,G,]2 | z2 [D,F,]2 | %7
 [D,G,]4 :: E,,4 | D,,4 | x4 | x4 | x4 | x4 | x4 | x4 :|[K:D][M:2/4] x4 | x4 | x4 | x4 | x4 | x4 | %22
 x4 | x4 :: x4 | x4 | x4 | x4 | x4 | x4 | x4 | x4 :|[K:Gb][M:2/4] x4 | x4 | x4 | x4 | x4 | x4 | %38
 x4 | x4 :: x4 | x4 | x4 | x4 | x4 | x4 |1 x4 | x4 :|2 x4 | x4 ||[K:Eb][M:2/4] x4 | x4 | x4 | x4 | %54
 x4 | x4 | x4 | x4 :: x4 | x4 | x4 | x4 | x2[K:treble] x2 | x4 | x4 | x4 :|[K:Ab][K:bass] x4 | x4 | %68
 x4 | x4 | x4 | x4 | x4 | x4 :: x4 | x4 | x4 | x4 | x4 | x4 | x4 | x4 :|[K:Gb][M:2/4] x4 | x4 | %84
 x4 | x4 | x4 | x4 | x4 | x4 :: x4 | x4 | x4 | x4 | x4 | x4 | x4 | x4 :|[K:D][M:2/4] x4 | x4 | x4 | %101
 x4 | x4 | x4 | x4 | x4 :: x4 | x4 | x4 | x4 | x4 |1 x4 | x4 | x4 :|2 x4 | x4 | x2 ||[M:2/4] x2 | %118
 (A,4 | G,4) | (F,4 | D,4) | G,4 | F,4 | x4 | x2 :: x2 | x4 | x4 | x4 | x4 | x4 | x4 | x4 | x4 :| %135
[K:B][M:2/4] x4 | x4 | x4 | x4 | x4 | x4 | x4 | x4 :: x4 | x4 | x4 | x4 | x4 | x4 | x4 | x4 :| x4 | %152
 x4 | x4 | x4 | x4 | x4 | x4 | x4 :: x4 | x4 | x4 | x4 | x4 | x4 | x4 | x4 :|[K:D][M:2/4] x4 | x4 | %169
 x4 | x4 | x4 | x4 | x4 | x4 :: x4 | x4 | x4 | x4 | x4 | x4 | x4 | x4 :| %183
V:4
 x4 | x4 | [CD]4 | D2 [GB]2 | x4 | x4 | [CD]4 | G4 :: x4 | x4 | x4 | x4 | (_D3 =C) | [DG]4 | %14
 [CF]2 [CF]2 | B,4 :|[K:D][M:2/4] x4 | A4 | x4 | x4 | ea ba | f2 a2 | x4 | x4 :: !>!d4 | !>!d4 | %26
 !>!e4 | !>!e4 | !>!a4 | !>!b4 | !>!a4 | d'2 x2 :|[K:Gb][M:2/4] x4 | x4 | x4 | x4 | x4 | x4 | x4 | %39
 x4 :: F4 | F4 | F4 | x4 | [GB]4 | x4 |1 [GB]4 | x4 :|2 C2 C2 | B,2 x2 ||[K:Eb][M:2/4] x4 | x4 | %52
 x4 | x4 | x4 | x4 | x4 | x4 :: x4 | x4 | x4 | x4 | x4 | x4 | x4 | x4 :|[K:Ab] x4 | x4 | x4 | x4 | %70
 x4 | x4 | x4 | x4 :: x4 | x4 | [F=Ac]4 | [F=Ac]4 | x4 | x4 | x4 | x4 :|[K:Gb][M:2/4] x4 | x4 | %84
 x4 | x4 | x4 | x4 | x4 | x4 :: x4 | x4 | x4 | x4 | x4 | x4 | [_cf]2 [cf]2 | B2 z2 :| %98
[K:D][M:2/4] x4 | x4 | x4 | x4 | d((B [Bd]2)) | e((c [ce]2)) | [df]2 [cf]2 | [Bf]2 x2 :: x4 | x4 | %108
 x4 | x4 | x4 |1 x4 | x4 | x4 :|2 x4 | x4 | x2 ||[M:2/4] x2 | x4 | x4 | x4 | x4 | x4 | x4 | x4 | %125
 x2 :: x2 | x4 | x4 | x4 | x4 | x4 | x4 | x2 G2 | F2 x2 :|[K:B][M:2/4] d2 ed | [Fc]3 [Fc] | %137
{c} e2 d2 | [Fc]4 | B2 cB | D3 D | (A2 G2) | D4 :: D4 | x4 | (^^F2 G2 | ^F4) | D4 | x4 | x4 | x4 :| %151
 x4 | x4 | x4 | x4 | x4 | x4 | x4 | x4 :: [Bd]2 [Bd]2 | [Bd]2 [Bd]2 | [Bd]2 [Bd]2 | x4 | f2 [eb]2 | %164
 e2 [db]2 | d2 [ca]2 | B4 :|[K:D][M:2/4] [B,D]4 | [B,D]4 | F2 B2 | x4 | [da]4 | [Ad]4 | %173
 [Gc]2 [Gc]2 | F2 x2 :: [Gc]4 | x4 | [Gc]4 | x4 | [Bd]4 | [eb]4 | [gc']2 [gc']2 | f2 x2 :| %183
V:5
 x4 | x4 | x4 | x4 | x4 | x4 | x4 | x4 :: x4 | x4 | x4 | x4 | x4 | x4 | x4 | x4 :|[K:D][M:2/4] x4 | %17
 x4 | x4 | x4 | x4 | x4 | x4 | x4 :: x4 | x4 | x4 | x4 | x4 | x4 | x4 | x4 :|[K:Gb][M:2/4] x4 | %33
 x4 | x4 | x4 | x4 | x4 | x4 | x4 :: x4 | x4 | x4 | x4 | x4 | x4 |1 x4 | x4 :|2 x4 | x4 || %50
[K:Eb][M:2/4] x4 | x4 | x4 | x4 | x4 | x4 | x4 | x4 :: x4 | x4 | x4 | x4 | x4 | x4 | x4 | x4 :| %66
[K:Ab] x4 | x4 | x4 | x4 | x4 | x4 | x4 | x4 :: x4 | x4 | x4 | x4 | x4 | x4 | x4 | x4 :| %82
[K:Gb][M:2/4] x4 | x4 | x4 | x4 | x4 | x4 | x4 | x4 :: x4 | x4 | x4 | x4 | x4 | x4 | x4 | x4 :| %98
[K:D][M:2/4] x4 | x4 | x4 | x4 | x4 | x4 | x4 | x4 :: x4 | x4 | x4 | x4 | x4 |1 x4 | x4 | x4 :|2 %114
 x4 | x4 | x2 ||[M:2/4] x2 | x4 | x4 | x4 | x4 | x4 | x4 | x4 | x2 :: x2 | x4 | x4 | x4 | x4 | x4 | %132
 x4 | x4 | x4 :|[K:B][M:2/4] F4 | x4 | F4 | x4 | D4 | x4 | D4 | x4 :: x4 | x4 | x4 | x4 | x4 | x4 | %149
 x4 | x4 :| x4 | x4 | x4 | x4 | x4 | x4 | x4 | x4 :: x4 | x4 | x4 | x4 | x4 | x4 | x4 | x4 :| %167
[K:D][M:2/4] x4 | x4 | x4 | x4 | x4 | x4 | x4 | x4 :: x4 | x4 | x4 | x4 | x4 | x4 | x4 | x4 :| %183

